app/assets/images/heroicons/micro/rectangle-stack.svg

<svg width="16" height="16" viewBox="0 0 16 16" fill="none" xmlns="http://www.w3.org/2000/svg">
<path d="M5 3.5C5 2.67157 5.67157 2 6.5 2H9.5C10.3284 2 11 2.67157 11 3.5H5Z" fill="black"/>
<path d="M4.5 5C3.67157 5 3 5.67157 3 6.5V6.54148C3.1626 6.5142 3.32964 6.5 3.5 6.5H12.5C12.6704 6.5 12.8374 6.5142 13 6.54148V6.5C13 5.67157 12.3284 5 11.5 5H4.5Z" fill="black"/>
<path d="M12.5 8H3.5C2.67157 8 2 8.67157 2 9.5V12.5C2 13.3284 2.67157 14 3.5 14H12.5C13.3284 14 14 13.3284 14 12.5V9.5C14 8.67157 13.3284 8 12.5 8Z" fill="black"/>
</svg>

<svg xmlns="http://www.w3.org/2000/svg" viewBox="0 0 16 16" fill="currentColor" aria-hidden="true" data-slot="icon">
  <path d="M5 3.5A1.5 1.5 0 0 1 6.5 2h3A1.5 1.5 0 0 1 11 3.5H5ZM4.5 5A1.5 1.5 0 0 0 3 6.5v.041a3.02 3.02 0 0 1 .5-.041h9c.17 0 .337.014.5.041V6.5A1.5 1.5 0 0 0 11.5 5h-7ZM12.5 8h-9A1.5 1.5 0 0 0 2 9.5v3A1.5 1.5 0 0 0 3.5 14h9a1.5 1.5 0 0 0 1.5-1.5v-3A1.5 1.5 0 0 0 12.5 8Z"/>
</svg>
